src/16/actions/redeyes.svg

<svg xmlns="http://www.w3.org/2000/svg" viewBox="0 0 16 16">
  <defs id="defs3051">
    <style type="text/css" id="current-color-scheme">
      .ColorScheme-Text {
        color:#5d656b;
      }
      </style>
  </defs>
 <path 
     style="fill:currentColor;fill-opacity:1;stroke:none" 
     d="M 8 3 A 8.999992 9 0 0 0 0.12304688 7.6679688 C 0.25199987 8.0299997 0.48029687 8.3451719 0.77929688 8.5761719 A 7.999993 8 0 0 1 8 4 A 4 4 0 0 0 4 8 A 4 4 0 0 0 8 12 A 4 4 0 0 0 12 8 A 4 4 0 0 0 8.3496094 4.0175781 A 7.999993 8 0 0 1 15.220703 8.5761719 C 15.522 8.3419999 15.752859 8.0302031 15.880859 7.6582031 A 8.999992 9 0 0 0 8 3 z M 8 5 A 3 3 0 0 1 11 8 A 3 3 0 0 1 8 11 A 3 3 0 0 1 5 8 A 3 3 0 0 1 8 5 z "
     class="ColorScheme-Text"/>
  <path
     d="M8 6A2 2 0 0 0 6 8 2 2 0 0 0 8 10 2 2 0 0 0 10 8 2 2 0 0 0 9.910156 7.412109 1 1 0 0 1 9 8 1 1 0 0 1 8 7 1 1 0 0 1 8.589844 6.089844 2 2 0 0 0 8 6"
     style="fill:#da4453"/>
</svg>

<svg xmlns="http://www.w3.org/2000/svg" viewBox="0 0 16 16"><path d="M8 3A9 9 0 0 0 .123 7.668c.129.362.357.677.656.908A8 8 0 0 1 8 4a4 4 0 0 0-4 4 4 4 0 0 0 4 4 4 4 0 0 0 4-4 4 4 0 0 0-3.65-3.982 8 8 0 0 1 6.87 4.558c.302-.234.533-.546.66-.918A9 9 0 0 0 8 3zm0 2a3 3 0 0 1 3 3 3 3 0 0 1-3 3 3 3 0 0 1-3-3 3 3 0 0 1 3-3z" fill="currentColor" color="#5d656b"/><path d="M8 6a2 2 0 0 0-2 2 2 2 0 0 0 2 2 2 2 0 0 0 2-2 2 2 0 0 0-.09-.588A1 1 0 0 1 9 8a1 1 0 0 1-1-1 1 1 0 0 1 .59-.91A2 2 0 0 0 8 6" fill="#da4453"/></svg>
